X:143
T:Enfield Common. WCD3/1.143
M:3/2
L:1/4
Z:vmp. Peter Dunk 2013 www.village-music-project.org.uk
B:Walsh, Compleat Country Dancing Master, 3rd Series, 1st Book, 4th Ed., 1754
Q:1/2=140
K:Dm
f ge|f d2 a bg|a f2 a ge|fd eA d^c|d D2||
e fd|g e2 cec|g c2 A cA|dB Gg ce|f F2 fA c|
=B d2 g Bd|^c e2 a eg|fd eA d^c|d D2|]

